ufans-frontend-package/public/assets/images/new-home/icon/eye.svg

<svg width="123" height="66" viewBox="0 0 123 66" fill="none" xmlns="http://www.w3.org/2000/svg">
<g clip-path="url(#clip0_1616_98)">
<path d="M0.950235 30.01C3.87024 26.48 6.93024 23.27 10.1002 20.38C24.4402 7.33 41.4602 0.360004 59.0102 0.0100042C76.5202 -0.339996 94.4802 5.91 110.71 19.3C114.59 22.5 118.34 26.07 121.95 30.04C123.11 31.32 123.17 33.21 122.18 34.55C118.05 40.38 113.3 45.37 108.11 49.51C95.1202 59.88 79.3402 64.98 63.3502 65.06C47.4202 65.13 31.2902 60.2 17.5502 50.49C11.4102 46.15 5.74023 40.86 0.770235 34.64C-0.339765 33.24 -0.229765 31.27 0.950235 30.01ZM61.4402 26.46C62.0302 26.46 62.6102 26.55 63.1502 26.7C62.6902 27.2 62.4202 27.87 62.4202 28.6C62.4202 30.16 63.6802 31.42 65.2402 31.42C66.0102 31.42 66.7002 31.12 67.2102 30.62C67.4102 31.22 67.5102 31.86 67.5102 32.52C67.5102 35.87 64.7902 38.59 61.4402 38.59C58.0902 38.59 55.3702 35.87 55.3702 32.52C55.3702 29.18 58.0902 26.46 61.4402 26.46ZM61.4402 10.82C67.4302 10.82 72.8602 13.25 76.7902 17.18C80.7202 21.11 83.1502 26.53 83.1502 32.53C83.1502 38.52 80.7202 43.95 76.7902 47.88C72.8602 51.81 67.4402 54.24 61.4402 54.24C55.4502 54.24 50.0202 51.81 46.0902 47.88C42.1602 43.95 39.7302 38.53 39.7302 32.53C39.7302 26.54 42.1602 21.11 46.0902 17.18C50.0202 13.25 55.4502 10.82 61.4402 10.82ZM71.8902 22.08C69.2202 19.41 65.5202 17.75 61.4402 17.75C57.3602 17.75 53.6602 19.4 50.9902 22.08C48.3202 24.75 46.6602 28.45 46.6602 32.53C46.6602 36.61 48.3102 40.31 50.9902 42.98C53.6602 45.65 57.3602 47.31 61.4402 47.31C65.5202 47.31 69.2202 45.66 71.8902 42.98C74.5602 40.31 76.2202 36.61 76.2202 32.53C76.2202 28.45 74.5602 24.75 71.8902 22.08ZM14.8902 25.63C12.5702 27.74 10.3302 30.02 8.19024 32.45C12.2602 37.17 16.7902 41.25 21.6402 44.68C34.1802 53.53 48.8502 58.03 63.3302 57.97C77.7502 57.9 91.9802 53.3 103.7 43.95C107.7 40.76 111.4 37.01 114.73 32.7C111.94 29.79 109.1 27.16 106.22 24.78C91.3302 12.51 75.0002 6.79 59.1502 7.1C43.3402 7.42 27.9302 13.76 14.8902 25.63Z" fill="#6661E7"/>
</g>
<defs>
<clipPath id="clip0_1616_98">
<rect width="123" height="66" fill="white"/>
</clipPath>
</defs>
</svg>

<svg xmlns="http://www.w3.org/2000/svg" xmlns:xlink="http://www.w3.org/1999/xlink" width="123" height="66" viewBox="0 0 123 66">
  <defs>
    <clipPath id="clip-path">
      <rect id="Rectangle_1" data-name="Rectangle 1" width="123" height="66" fill="#e44499"/>
    </clipPath>
  </defs>
  <g id="eye" clip-path="url(#clip-path)">
    <path id="Path_1" data-name="Path 1" d="M.95,30.01a94.65,94.65,0,0,1,9.15-9.63C24.44,7.33,41.46.36,59.01.01c17.51-.35,35.47,5.9,51.7,19.29a108.5,108.5,0,0,1,11.24,10.74,3.564,3.564,0,0,1,.23,4.51,73.182,73.182,0,0,1-14.07,14.96A71.917,71.917,0,0,1,63.35,65.06a78.982,78.982,0,0,1-45.8-14.57A82.228,82.228,0,0,1,.77,34.64,3.55,3.55,0,0,1,.95,30.01Zm60.49-3.55a6.42,6.42,0,0,1,1.71.24,2.823,2.823,0,0,0,4.06,3.92,6,6,0,0,1,.3,1.9,6.07,6.07,0,1,1-6.07-6.06Zm0-15.64a21.714,21.714,0,1,1-15.35,6.36A21.646,21.646,0,0,1,61.44,10.82ZM71.89,22.08a14.775,14.775,0,1,0,4.33,10.45A14.746,14.746,0,0,0,71.89,22.08Zm-57,3.55a86.446,86.446,0,0,0-6.7,6.82A74.738,74.738,0,0,0,21.64,44.68,71.99,71.99,0,0,0,63.33,57.97,64.875,64.875,0,0,0,103.7,43.95,65.757,65.757,0,0,0,114.73,32.7a100.315,100.315,0,0,0-8.51-7.92C91.33,12.51,75,6.79,59.15,7.1,43.34,7.42,27.93,13.76,14.89,25.63Z" fill="#e44499"/>
  </g>
</svg>
